X:1
T:Title
%%score ( 1 2 ) ( 3 4 )
L:1/8
Q:1/4=95
M:4/4
K:Bb
V:1 treble nm="Grand Piano, Soprano"
V:2 treble 
V:3 bass nm="Choir Pad, In the Valley, M. L. Williams"
V:4 bass 
V:1
 [DB][Ec] [Fd]2 [Fd][Fd][Ec][DB] | FE[DB][EA] [FB][EG] [CF]2 | FE[DB][EA] [FB][Fc][Fd][Fd] | %3
w: By~Marcus~Lafayette~Williams * * * * * *|||
 [FB]>[Fc] [Fd]2 [=Ec]>[Ed] [Fc]2 | [DB][Ec] [Fd]2 [Fd][Fd][Ec][DB] | FE[DB][EA] [FB][EG] [CF]2 | %6
w: |||
 [DF][EG][FB][Fc] [Fd][Fd] [Fd]2 | [GB]2 [Fd]<[Fd] [Ec]>[Ec] [DB]2 | [DB]>[Ec] [Fd]4- [Fd]>[DB] | %9
w: |||
 [Ec]>[Fd] [DB]6 | z2 c6 | z2 d6 | [DB]>[Ec] [Fd]4- [Fd]>[DB] | [Ec]>[Fd] [Ge]6 | z2 d6 | z2 B6- | %16
w: |||||||
 B6 z2 |] %17
w: |
V:2
 x8 | x8 | x8 | x8 | x8 | x8 | x8 | x8 | x8 | x8 | B>d F>F F>F F>[Fc] | [FB]>[Fc] F>F F>F F2 | x8 | %13
 x8 | B>c F>F G>G F>[FB] | [Ec]>[Ec] D>G F>E D2- | D6 z2 |] %17
V:3
 [B,,F,][B,,F,] [B,,B,]2 [B,,B,][B,,B,][B,,F,][B,,F,] | %1
 [D,B,][C,A,][B,,B,][C,F,] [D,B,][E,B,] [F,A,]2 | %2
 [D,B,][C,A,][B,,B,][C,F,] [D,B,][F,A,][B,,B,][B,,B,] | [B,D]>[A,C] [G,B,]2 [C,G,]>[C,B,] [F,A,]2 | %4
 [B,,F,][B,,F,] [B,,B,]2 [B,,B,][B,,B,][B,,F,][B,,F,] | %5
 [D,B,][C,A,][B,,B,][C,F,] [D,B,][E,B,] [F,A,]2 | [F,B,][E,B,][D,B,][F,A,] B,B, B,2 | %7
 [G,D]2 [D,B,]<[D,B,] [F,A,]>[F,A,] [B,,B,]2 | z4 [B,,B,]>[B,,B,] [B,,B,]2 | %9
 z2 z z/ [B,,F,]/ [B,,F,]>[B,,F,] [B,,F,]2 | z2 [F,A,]>[F,A,] [F,A,]>[F,A,] [F,A,]>[E,A,] | %11
 [D,B,]>[F,A,] B,>B, [F,B,]>[D,B,] [B,,B,]2 | z4 [B,,B,]>[B,,B,] [B,,B,]2 | %13
 z2 z z/ [E,B,]/ [E,B,]>[E,B,] [E,B,]2 | z2 B,>B, [G,B,]>[G,B,] [D,B,]>[D,B,] | %15
 [F,A,]>[F,A,] B,>B, A,>G, F,2- | F,6 z2 |] %17
V:4
 x8 | x8 | x8 | x8 | x8 | x8 | x8 | x8 | x8 | x8 | x8 | x8 | x8 | x8 | x8 | z2 B,,6- | B,,6 z2 |] %17

